X: 4117
T: Blow My Chanter
R: jig
M: 6/8
K: Amixolydian
eAB =c2 e|g=cc ege|fdd ege|fdd egf|
eAB =c2 e|g=cc ege|fdd gdd|a2 d agf:|
ddd ddd|a2 d agf|ecA ABc|ecA ABc|
ddd ddd|a2 d agf|ecA ABc|edc dfe:|

